_site/assets/img/hero-illustration.svg

<svg xmlns="http://www.w3.org/2000/svg" aria-label="Technical contour illustration" viewBox="0 0 600 600"><defs><linearGradient id="cadStroke" x1="0" x2="1" y1="0" y2="1"><stop offset="0" stop-color="#b8d4d0" stop-opacity=".7"/><stop offset="1" stop-color="#b8d4d0" stop-opacity=".3"/></linearGradient><style>.c{fill:none;stroke:url(#cadStroke);stroke-width:1.5;vector-effect:non-scaling-stroke}.dash{stroke-dasharray:6 8}</style></defs><g opacity=".2"><path d="M80 270c90-120 350-120 440 0" class="c"/><path d="M60 320c100-110 380-110 480 0" class="c"/><path d="M50 370c110-90 390-90 500 0" class="c"/><path d="M60 420c110-70 370-70 480 0" class="c"/><path d="M80 470c110-50 330-50 440 0" class="c"/><path d="M180 180c-20 80-20 180 0 260" class="c"/><path d="M240 160c-20 90-20 210 0 300" class="c"/><path d="M300 150c-20 100-20 230 0 330" class="c"/><path d="M360 160c-20 90-20 210 0 300" class="c"/><path d="M420 180c-20 80-20 180 0 260" class="c"/><g opacity=".45"><path d="M100 140h400" class="c dash"/><path d="M100 500h400" class="c dash"/><path d="M120 120v400" class="c dash"/><path d="M480 120v400" class="c dash"/></g></g></svg>

<?xml version="1.0" encoding="UTF-8"?>
<svg xmlns="http://www.w3.org/2000/svg"
     viewBox="0 0 600 600"
     role="img"
     aria-label="Technical contour illustration">

  <defs>
    <linearGradient id="cadStroke" x1="0" y1="0" x2="1" y2="1">
      <stop offset="0" stop-color="#B8D4D0" stop-opacity="0.7"/>
      <stop offset="1" stop-color="#B8D4D0" stop-opacity="0.3"/>
    </linearGradient>

    <style>
      .c { fill: none; stroke: url(#cadStroke); stroke-width: 1.5; vector-effect: non-scaling-stroke; }
      .dash { stroke-dasharray: 6 8; }
    </style>
  </defs>

     <g opacity="0.2">
  <g>
    <path class="c" d="M80 270 C170 150, 430 150, 520 270"/>
    <path class="c" d="M60 320 C160 210, 440 210, 540 320"/>
    <path class="c" d="M50 370 C160 280, 440 280, 550 370"/>
    <path class="c" d="M60 420 C170 350, 430 350, 540 420"/>
    <path class="c" d="M80 470 C190 420, 410 420, 520 470"/>
  </g>

  <g>
    <path class="c" d="M180 180 C160 260, 160 360, 180 440"/>
    <path class="c" d="M240 160 C220 250, 220 370, 240 460"/>
    <path class="c" d="M300 150 C280 250, 280 380, 300 480"/>
    <path class="c" d="M360 160 C340 250, 340 370, 360 460"/>
    <path class="c" d="M420 180 C400 260, 400 360, 420 440"/>
  </g>

  <g opacity="0.45">
    <path class="c dash" d="M100 140 L500 140"/>
    <path class="c dash" d="M100 500 L500 500"/>
    <path class="c dash" d="M120 120 L120 520"/>
    <path class="c dash" d="M480 120 L480 520"/>
  </g>
</g>
</svg>
